X:343
T: ES WAR EIN MAEDCHEN VON FARBE SO BLEICH
N: E0194
O: Europa, Mitteleuropa, Deutschland, Siebengebirge
R: erzaehlendes Volks - Lied, Sage, Familien - Geschichte
M: 3/4
L: 1/8
K: D
=FG | A4A2 | A2A2AG | =F2D2EF | G4
A2 | =F2A2G2 | E2E2E=F | G2=F2E2 | D4

